map_marker_monochrome/openmoji_long_drum.svg

<svg xmlns="http://www.w3.org/2000/svg" width="24" height="24" viewBox="0 0 24 24"> <g transform="translate(5.040616361331879 0.0) scale(0.4613793832507249)">
  
  <g
     id="line-supplement"
     transform="translate(-19.56163,-9.8568726)">
    <path
       d="m 29.625,35.9453 a 1,1 0 0 1 -0.8408,-1.54 l 4.5527,-7.1006 -3.2949,-4.0811 a 1.0000046,1.0000046 0 0 1 1.5566,-1.2558 l 3.7471,4.6416 a 1,1 0 0 1 0.0635,1.1679 l -4.9414,7.7081 a 0.9986,0.9986 0 0 1 -0.8428,0.4599 z"
       id="path2" />
    <path
       d="M 25.6152,35.84 A 1,1 0 0 1 24.8574,35.4924 L 19.8037,29.623 A 1.001,1.001 0 0 1 19.7812,28.3447 L 24.959,21.89 a 1.000333,1.000333 0 0 1 1.5605,1.252 l -4.6582,5.8066 4.5117,5.2393 a 1,1 0 0 1 -0.7578,1.6523 z"
       id="path4" />
    <path
       d="M 28.7969,54.457 A 1.0007,1.0007 0 0 1 27.8125,53.6289 L 25.1846,38.5273 a 1.0002235,1.0002235 0 1 1 1.9707,-0.3437 l 2.6279,15.1016 a 1,1 0 0 1 -0.8135,1.1572 1.0571,1.0571 0 0 1 -0.1728,0.0146 z"
       id="path6" />
    <path
       d="M 30.5293,54.457 A 1,1 0 0 1 29.5332,53.5381 L 28.2959,38.373 A 1.0003388,1.0003388 0 0 1 30.29,38.2109 l 1.2373,15.1651 a 1.0007,1.0007 0 0 1 -0.916,1.0781 c -0.0273,0.002 -0.0547,0.0029 -0.082,0.0029 z"
       id="path8" />
    <path
       d="m 39.51,35.9453 a 0.9985,0.9985 0 0 1 -0.8428,-0.46 l -4.9414,-7.7081 a 1,1 0 0 1 0.0635,-1.1679 l 3.747,-4.6416 a 1.0000436,1.0000436 0 0 1 1.5567,1.2558 l -3.2949,4.0811 4.5527,7.1006 a 1,1 0 0 1 -0.8408,1.54 z"
       id="path10" />
    <path
       d="m 43.5205,35.84 a 1,1 0 0 1 -0.7578,-1.6523 l 4.5107,-5.2393 -4.6582,-5.8066 a 1.000372,1.000372 0 0 1 1.5606,-1.252 l 5.1777,6.4551 a 1.0009,1.0009 0 0 1 -0.0224,1.2783 l -5.0528,5.8692 A 0.9978,0.9978 0 0 1 43.5205,35.84 Z"
       id="path12" />
    <path
       d="M 40.3389,54.457 A 1.0364,1.0364 0 0 1 40.167,54.4424 1,1 0 0 1 39.3525,53.2861 L 41.98,38.1846 a 1.0000607,1.0000607 0 1 1 1.9707,0.3418 l -2.627,15.1015 a 1.0006,1.0006 0 0 1 -0.9848,0.8291 z"
       id="path14" />
    <path
       d="m 38.6055,54.457 c -0.0274,0 -0.0547,-9e-4 -0.0821,-0.0029 a 1.0008,1.0008 0 0 1 -0.916,-1.0781 l 1.2373,-15.1651 a 1.0112,1.0112 0 0 1 1.0782,-0.916 1.0008,1.0008 0 0 1 0.916,1.0781 l -1.2373,15.1651 a 1,1 0 0 1 -0.9961,0.9189 z"
       id="path16" />
  </g>
  <g
     id="line"
     transform="translate(-19.56163,-9.8568726)">
    <path
       fill="none"
       stroke="#000"
       stroke-miterlimit="10"
       stroke-width="2"
       d="M 43.3557,57.378 C 52.84,30.25 47.2842,15.58 45.4308,11.8305 A 1.7576,1.7576 0 0 0 43.8479,10.8569 H 25.45 a 1.7576,1.7576 0 0 0 -1.5829,0.9736 c -1.8534,3.75 -7.4094,18.42 2.0751,45.5475 a 5.2374,5.2374 0 0 0 4.9413,3.4968 h 7.5313 a 5.2373,5.2373 0 0 0 4.9409,-3.4968 z"
       id="path19" />
    <line
       x1="21.724701"
       x2="47.5728"
       y1="18.118999"
       y2="18.118999"
       fill="none"
       stroke="#000"
       stroke-linecap="round"
       stroke-miterlimit="10"
       stroke-width="2"
       id="line21" />
    <line
       x1="23.271099"
       x2="46.340099"
       y1="13.9579"
       y2="13.9579"
       fill="none"
       stroke="#000"
       stroke-linecap="round"
       stroke-miterlimit="10"
       stroke-width="2"
       id="line23" />
    <line
       x1="20.9533"
       x2="48.343102"
       y1="22.5152"
       y2="22.5152"
       fill="none"
       stroke="#000"
       stroke-linecap="round"
       stroke-miterlimit="10"
       stroke-width="2"
       id="line25" />
    <rect
       x="24.700701"
       y="35.181198"
       rx="1.3284"
       width="6"
       height="3"
       fill="none"
       stroke="#000"
       stroke-miterlimit="10"
       stroke-width="2"
       id="rect27" />
    <line
       x1="24.647699"
       x2="44.610199"
       y1="53.456902"
       y2="53.456902"
       fill="none"
       stroke="#000"
       stroke-linecap="round"
       stroke-miterlimit="10"
       stroke-width="2"
       id="line29" />
    <line
       x1="25.980801"
       x2="43.336899"
       y1="56.523499"
       y2="56.523499"
       fill="none"
       stroke="#000"
       stroke-linecap="round"
       stroke-miterlimit="10"
       stroke-width="2"
       id="line31" />
    <rect
       x="38.4342"
       y="35.181198"
       rx="1.3284"
       width="6"
       height="3"
       transform="rotate(180,41.434,36.681)"
       fill="none"
       stroke="#000"
       stroke-miterlimit="10"
       stroke-width="2"
       id="rect33" />
  </g>
</g></svg>

<svg xmlns="http://www.w3.org/2000/svg" width="24" height="24" viewBox="0 0 24 24"> <g transform="scale(0.333333333)">  <g id="line-supplement">
    <path d="M29.625,35.9453a1,1,0,0,1-.8408-1.54l4.5527-7.1006L30.042,23.2236a1,1,0,0,1,1.5566-1.2558l3.7471,4.6416a1,1,0,0,1,.0635,1.1679l-4.9414,7.7081A.9986.9986,0,0,1,29.625,35.9453Z"/>
    <path d="M25.6152,35.84a1,1,0,0,1-.7578-.3476L19.8037,29.623a1.001,1.001,0,0,1-.0225-1.2783L24.959,21.89a1,1,0,0,1,1.5605,1.252l-4.6582,5.8066,4.5117,5.2393a1,1,0,0,1-.7578,1.6523Z"/>
    <path d="M28.7969,54.457a1.0007,1.0007,0,0,1-.9844-.8281L25.1846,38.5273a1,1,0,1,1,1.9707-.3437l2.6279,15.1016a1,1,0,0,1-.8135,1.1572A1.0571,1.0571,0,0,1,28.7969,54.457Z"/>
    <path d="M30.5293,54.457a1,1,0,0,1-.9961-.9189L28.2959,38.373a1,1,0,0,1,1.9941-.1621L31.5273,53.376a1.0007,1.0007,0,0,1-.916,1.0781C30.584,54.4561,30.5566,54.457,30.5293,54.457Z"/>
    <path d="M39.51,35.9453a.9985.9985,0,0,1-.8428-.46l-4.9414-7.7081a1,1,0,0,1,.0635-1.1679l3.747-4.6416a1,1,0,0,1,1.5567,1.2558l-3.2949,4.0811,4.5527,7.1006a1,1,0,0,1-.8408,1.54Z"/>
    <path d="M43.5205,35.84a1,1,0,0,1-.7578-1.6523l4.5107-5.2393-4.6582-5.8066a1,1,0,0,1,1.5606-1.252l5.1777,6.4551a1.0009,1.0009,0,0,1-.0224,1.2783l-5.0528,5.8692A.9978.9978,0,0,1,43.5205,35.84Z"/>
    <path d="M40.3389,54.457a1.0364,1.0364,0,0,1-.1719-.0146,1,1,0,0,1-.8145-1.1563L41.98,38.1846a1,1,0,1,1,1.9707.3418l-2.627,15.1015A1.0006,1.0006,0,0,1,40.3389,54.457Z"/>
    <path d="M38.6055,54.457c-.0274,0-.0547-.0009-.0821-.0029a1.0008,1.0008,0,0,1-.916-1.0781l1.2373-15.1651a1.0112,1.0112,0,0,1,1.0782-.916,1.0008,1.0008,0,0,1,.916,1.0781L39.6016,53.5381A1,1,0,0,1,38.6055,54.457Z"/>
  </g>
  <g id="line">
    <path fill="none" stroke="#000" stroke-miterlimit="10" stroke-width="2" d="M43.3557,57.378C52.84,30.25,47.2842,15.58,45.4308,11.8305a1.7576,1.7576,0,0,0-1.5829-.9736H25.45a1.7576,1.7576,0,0,0-1.5829.9736c-1.8534,3.75-7.4094,18.42,2.0751,45.5475a5.2374,5.2374,0,0,0,4.9413,3.4968h7.5313A5.2373,5.2373,0,0,0,43.3557,57.378Z"/>
    <line x1="21.7247" x2="47.5728" y1="18.119" y2="18.119" fill="none" stroke="#000" stroke-linecap="round" stroke-miterlimit="10" stroke-width="2"/>
    <line x1="23.2711" x2="46.3401" y1="13.9579" y2="13.9579" fill="none" stroke="#000" stroke-linecap="round" stroke-miterlimit="10" stroke-width="2"/>
    <line x1="20.9533" x2="48.3431" y1="22.5152" y2="22.5152" fill="none" stroke="#000" stroke-linecap="round" stroke-miterlimit="10" stroke-width="2"/>
    <rect x="24.7007" y="35.1812" rx="1.3284" width="6" height="3" fill="none" stroke="#000" stroke-miterlimit="10" stroke-width="2"/>
    <line x1="24.6477" x2="44.6102" y1="53.4569" y2="53.4569" fill="none" stroke="#000" stroke-linecap="round" stroke-miterlimit="10" stroke-width="2"/>
    <line x1="25.9808" x2="43.3369" y1="56.5235" y2="56.5235" fill="none" stroke="#000" stroke-linecap="round" stroke-miterlimit="10" stroke-width="2"/>
    <rect x="38.4342" y="35.1812" rx="1.3284" width="6" height="3" transform="matrix(-1 0 0 -1 82.868 73.362)" fill="none" stroke="#000" stroke-miterlimit="10" stroke-width="2"/>
  </g></g></svg>
